svgs/light/bars-progress.svg

<svg xmlns="http://www.w3.org/2000/svg" viewBox="0 0 512 512"><!--! Font Awesome Pro 6.6.0 by @fontawesome - https://fontawesome.com License - https://fontawesome.com/license (Commercial License) Copyright 2024 Fonticons, Inc. --><path d="M464 96c8.8 0 16 7.2 16 16l0 64c0 8.8-7.2 16-16 16l-144 0 0-96 144 0zM48 96l240 0 0 96L48 192c-8.8 0-16-7.2-16-16l0-64c0-8.8 7.2-16 16-16zm0-32C21.5 64 0 85.5 0 112l0 64c0 26.5 21.5 48 48 48l416 0c26.5 0 48-21.5 48-48l0-64c0-26.5-21.5-48-48-48L48 64zM464 320c8.8 0 16 7.2 16 16l0 64c0 8.8-7.2 16-16 16l-272 0 0-96 272 0zM48 320l112 0 0 96L48 416c-8.8 0-16-7.2-16-16l0-64c0-8.8 7.2-16 16-16zm0-32c-26.5 0-48 21.5-48 48l0 64c0 26.5 21.5 48 48 48l416 0c26.5 0 48-21.5 48-48l0-64c0-26.5-21.5-48-48-48L48 288z"/></svg>

<svg xmlns="http://www.w3.org/2000/svg" viewBox="0 0 512 512"><!--! Font Awesome Pro 6.4.2 by @fontawesome - https://fontawesome.com License - https://fontawesome.com/license (Commercial License) Copyright 2023 Fonticons, Inc. --><path d="M464 96c8.8 0 16 7.2 16 16v64c0 8.8-7.2 16-16 16H320V96H464zM48 96H288v96H48c-8.8 0-16-7.2-16-16V112c0-8.8 7.2-16 16-16zm0-32C21.5 64 0 85.5 0 112v64c0 26.5 21.5 48 48 48H464c26.5 0 48-21.5 48-48V112c0-26.5-21.5-48-48-48H48zM464 320c8.8 0 16 7.2 16 16v64c0 8.8-7.2 16-16 16H192V320H464zM48 320H160v96H48c-8.8 0-16-7.2-16-16V336c0-8.8 7.2-16 16-16zm0-32c-26.5 0-48 21.5-48 48v64c0 26.5 21.5 48 48 48H464c26.5 0 48-21.5 48-48V336c0-26.5-21.5-48-48-48H48z"/></svg>
